images/google-icon.svg

<svg width="135" height="40" viewBox="0 0 135 40" fill="none" xmlns="http://www.w3.org/2000/svg">
<g clip-path="url(#clip0_2129_11264)">
<path d="M130 39.5H5C2.48262 39.5 0.5 37.4304 0.5 35V5C0.5 2.48262 2.56962 0.5 5 0.5H130C132.517 0.5 134.5 2.56962 134.5 5V35C134.5 37.5239 132.524 39.5 130 39.5Z" fill="black" stroke="#A6A6A6"/>
<path d="M47.4004 10.2004C47.4004 11.0004 47.2004 11.7004 46.7004 12.2004C46.1004 12.8004 45.4004 13.1004 44.5004 13.1004C43.6004 13.1004 42.9004 12.8004 42.3004 12.2004C41.7004 11.6004 41.4004 10.9004 41.4004 10.0004C41.4004 9.10039 41.7004 8.40039 42.3004 7.80039C42.9004 7.20039 43.6004 6.90039 44.5004 6.90039C44.9004 6.90039 45.3004 7.00039 45.7004 7.20039C46.1004 7.40039 46.4004 7.60039 46.6004 7.90039L46.1004 8.40039C45.7004 7.90039 45.2004 7.70039 44.5004 7.70039C43.9004 7.70039 43.3004 7.90039 42.9004 8.40039C42.4004 8.80039 42.2004 9.40039 42.2004 10.1004C42.2004 10.8004 42.4004 11.4004 42.9004 11.8004C43.4004 12.2004 43.9004 12.5004 44.5004 12.5004C45.2004 12.5004 45.7004 12.3004 46.2004 11.8004C46.5004 11.5004 46.7004 11.1004 46.7004 10.6004H44.5004V9.80039H47.4004C47.4004 9.90039 47.4004 10.1004 47.4004 10.2004Z" fill="white"/>
<path d="M52 7.7H49.3V9.6H51.8V10.3H49.3V12.2H52V13H48.5V7H52V7.7Z" fill="white"/>
<path d="M55.3 13H54.5V7.7H52.8V7H57V7.7H55.3V13Z" fill="white"/>
<path d="M59.9004 13V7H60.7004V13H59.9004Z" fill="white"/>
<path d="M64.0996 13H63.2996V7.7H61.5996V7H65.6996V7.7H63.9996V13H64.0996Z" fill="white"/>
<path d="M73.6 12.2004C73 12.8004 72.3 13.1004 71.4 13.1004C70.5 13.1004 69.8 12.8004 69.2 12.2004C68.6 11.6004 68.3 10.9004 68.3 10.0004C68.3 9.10039 68.6 8.40039 69.2 7.80039C69.8 7.20039 70.5 6.90039 71.4 6.90039C72.3 6.90039 73 7.20039 73.6 7.80039C74.2 8.40039 74.5 9.10039 74.5 10.0004C74.5 10.9004 74.2 11.6004 73.6 12.2004ZM69.8 11.7004C70.2 12.1004 70.8 12.4004 71.4 12.4004C72 12.4004 72.6 12.2004 73 11.7004C73.4 11.3004 73.7 10.7004 73.7 10.0004C73.7 9.30039 73.5 8.70039 73 8.30039C72.6 7.90039 72 7.60039 71.4 7.60039C70.8 7.60039 70.2 7.80039 69.8 8.30039C69.4 8.70039 69.1 9.30039 69.1 10.0004C69.1 10.7004 69.3 11.3004 69.8 11.7004Z" fill="white"/>
<path d="M75.5996 13V7H76.4996L79.3996 11.7V7H80.1996V13H79.3996L76.2996 8.1V13H75.5996Z" fill="white"/>
<path d="M47.4004 10.2004C47.4004 11.0004 47.2004 11.7004 46.7004 12.2004C46.1004 12.8004 45.4004 13.1004 44.5004 13.1004C43.6004 13.1004 42.9004 12.8004 42.3004 12.2004C41.7004 11.6004 41.4004 10.9004 41.4004 10.0004C41.4004 9.10039 41.7004 8.40039 42.3004 7.80039C42.9004 7.20039 43.6004 6.90039 44.5004 6.90039C44.9004 6.90039 45.3004 7.00039 45.7004 7.20039C46.1004 7.40039 46.4004 7.60039 46.6004 7.90039L46.1004 8.40039C45.7004 7.90039 45.2004 7.70039 44.5004 7.70039C43.9004 7.70039 43.3004 7.90039 42.9004 8.40039C42.4004 8.80039 42.2004 9.40039 42.2004 10.1004C42.2004 10.8004 42.4004 11.4004 42.9004 11.8004C43.4004 12.2004 43.9004 12.5004 44.5004 12.5004C45.2004 12.5004 45.7004 12.3004 46.2004 11.8004C46.5004 11.5004 46.7004 11.1004 46.7004 10.6004H44.5004V9.80039H47.4004C47.4004 9.90039 47.4004 10.1004 47.4004 10.2004Z" stroke="white" stroke-width="0.2" stroke-miterlimit="10"/>
<path d="M52 7.7H49.3V9.6H51.8V10.3H49.3V12.2H52V13H48.5V7H52V7.7Z" stroke="white" stroke-width="0.2" stroke-miterlimit="10"/>
<path d="M55.3 13H54.5V7.7H52.8V7H57V7.7H55.3V13Z" stroke="white" stroke-width="0.2" stroke-miterlimit="10"/>
<path d="M59.9004 13V7H60.7004V13H59.9004Z" stroke="white" stroke-width="0.2" stroke-miterlimit="10"/>
<path d="M64.0996 13H63.2996V7.7H61.5996V7H65.6996V7.7H63.9996V13H64.0996Z" stroke="white" stroke-width="0.2" stroke-miterlimit="10"/>
<path d="M73.6 12.2004C73 12.8004 72.3 13.1004 71.4 13.1004C70.5 13.1004 69.8 12.8004 69.2 12.2004C68.6 11.6004 68.3 10.9004 68.3 10.0004C68.3 9.10039 68.6 8.40039 69.2 7.80039C69.8 7.20039 70.5 6.90039 71.4 6.90039C72.3 6.90039 73 7.20039 73.6 7.80039C74.2 8.40039 74.5 9.10039 74.5 10.0004C74.5 10.9004 74.2 11.6004 73.6 12.2004ZM69.8 11.7004C70.2 12.1004 70.8 12.4004 71.4 12.4004C72 12.4004 72.6 12.2004 73 11.7004C73.4 11.3004 73.7 10.7004 73.7 10.0004C73.7 9.30039 73.5 8.70039 73 8.30039C72.6 7.90039 72 7.60039 71.4 7.60039C70.8 7.60039 70.2 7.80039 69.8 8.30039C69.4 8.70039 69.1 9.30039 69.1 10.0004C69.1 10.7004 69.3 11.3004 69.8 11.7004Z" stroke="white" stroke-width="0.2" stroke-miterlimit="10"/>
<path d="M75.5996 13V7H76.4996L79.3996 11.7V7H80.1996V13H79.3996L76.2996 8.1V13H75.5996Z" stroke="white" stroke-width="0.2" stroke-miterlimit="10"/>
<path d="M68.0996 21.7996C65.6996 21.7996 63.7996 23.5996 63.7996 26.0996C63.7996 28.4996 65.6996 30.3996 68.0996 30.3996C70.4996 30.3996 72.3996 28.5996 72.3996 26.0996C72.3996 23.4996 70.4996 21.7996 68.0996 21.7996ZM68.0996 28.5996C66.7996 28.5996 65.6996 27.4996 65.6996 25.9996C65.6996 24.4996 66.7996 23.3996 68.0996 23.3996C69.3996 23.3996 70.4996 24.3996 70.4996 25.9996C70.4996 27.4996 69.3996 28.5996 68.0996 28.5996ZM58.7996 21.7996C56.3996 21.7996 54.4996 23.5996 54.4996 26.0996C54.4996 28.4996 56.3996 30.3996 58.7996 30.3996C61.1996 30.3996 63.0996 28.5996 63.0996 26.0996C63.0996 23.4996 61.1996 21.7996 58.7996 21.7996ZM58.7996 28.5996C57.4996 28.5996 56.3996 27.4996 56.3996 25.9996C56.3996 24.4996 57.4996 23.3996 58.7996 23.3996C60.0996 23.3996 61.1996 24.3996 61.1996 25.9996C61.1996 27.4996 60.0996 28.5996 58.7996 28.5996ZM47.6996 23.0996V24.8996H51.9996C51.8996 25.8996 51.4996 26.6996 50.9996 27.1996C50.3996 27.7996 49.3996 28.4996 47.6996 28.4996C44.9996 28.4996 42.9996 26.3996 42.9996 23.6996C42.9996 20.9996 45.0996 18.8996 47.6996 18.8996C49.0996 18.8996 50.1996 19.4996 50.9996 20.1996L52.2996 18.8996C51.1996 17.8996 49.7996 17.0996 47.7996 17.0996C44.1996 17.0996 41.0996 20.0996 41.0996 23.6996C41.0996 27.2996 44.1996 30.2996 47.7996 30.2996C49.7996 30.2996 51.1996 29.6996 52.3996 28.3996C53.5996 27.1996 53.9996 25.4996 53.9996 24.1996C53.9996 23.7996 53.9996 23.3996 53.8996 23.0996H47.6996ZM93.0996 24.4996C92.6996 23.4996 91.6996 21.7996 89.4996 21.7996C87.2996 21.7996 85.4996 23.4996 85.4996 26.0996C85.4996 28.4996 87.2996 30.3996 89.6996 30.3996C91.5996 30.3996 92.7996 29.1996 93.1996 28.4996L91.7996 27.4996C91.2996 28.1996 90.6996 28.6996 89.6996 28.6996C88.6996 28.6996 88.0996 28.2996 87.5996 27.3996L93.2996 24.9996L93.0996 24.4996ZM87.2996 25.8996C87.2996 24.2996 88.5996 23.3996 89.4996 23.3996C90.1996 23.3996 90.8996 23.7996 91.0996 24.2996L87.2996 25.8996ZM82.5996 29.9996H84.4996V17.4996H82.5996V29.9996ZM79.5996 22.6996C79.0996 22.1996 78.2996 21.6996 77.2996 21.6996C75.1996 21.6996 73.1996 23.5996 73.1996 25.9996C73.1996 28.3996 75.0996 30.1996 77.2996 30.1996C78.2996 30.1996 79.0996 29.6996 79.4996 29.1996H79.5996V29.7996C79.5996 31.3996 78.6996 32.2996 77.2996 32.2996C76.1996 32.2996 75.3996 31.4996 75.1996 30.7996L73.5996 31.4996C74.0996 32.5996 75.2996 33.9996 77.3996 33.9996C79.5996 33.9996 81.3996 32.6996 81.3996 29.5996V21.9996H79.5996V22.6996ZM77.3996 28.5996C76.0996 28.5996 74.9996 27.4996 74.9996 25.9996C74.9996 24.4996 76.0996 23.3996 77.3996 23.3996C78.6996 23.3996 79.6996 24.4996 79.6996 25.9996C79.6996 27.4996 78.6996 28.5996 77.3996 28.5996ZM101.8 17.4996H97.2996V29.9996H99.1996V25.2996H101.8C103.9 25.2996 105.9 23.7996 105.9 21.3996C105.9 18.9996 103.9 17.4996 101.8 17.4996ZM101.9 23.4996H99.1996V19.1996H101.9C103.3 19.1996 104.1 20.3996 104.1 21.2996C104 22.3996 103.2 23.4996 101.9 23.4996ZM113.4 21.6996C112 21.6996 110.6 22.2996 110.1 23.5996L111.8 24.2996C112.2 23.5996 112.8 23.3996 113.5 23.3996C114.5 23.3996 115.4 23.9996 115.5 24.9996V25.0996C115.2 24.8996 114.4 24.5996 113.6 24.5996C111.8 24.5996 110 25.5996 110 27.3996C110 29.0996 111.5 30.1996 113.1 30.1996C114.4 30.1996 115 29.5996 115.5 28.9996H115.6V29.9996H117.4V25.1996C117.2 22.9996 115.5 21.6996 113.4 21.6996ZM113.2 28.5996C112.6 28.5996 111.7 28.2996 111.7 27.4996C111.7 26.4996 112.8 26.1996 113.7 26.1996C114.5 26.1996 114.9 26.3996 115.4 26.5996C115.2 27.7996 114.2 28.5996 113.2 28.5996ZM123.7 21.9996L121.6 27.3996H121.5L119.3 21.9996H117.3L120.6 29.5996L118.7 33.7996H120.6L125.7 21.9996H123.7ZM106.9 29.9996H108.8V17.4996H106.9V29.9996Z" fill="white"/>
<path d="M10.4704 7.40008C10.1445 7.79119 9.97996 8.29187 10.0104 8.80008V30.9201C9.97996 31.4283 10.1445 31.9289 10.4704 32.3201L10.5404 32.3901L22.9304 20.0101V19.7201L10.5404 7.33008L10.4704 7.40008Z" fill="url(#paint0_linear_2129_11264)"/>
<path d="M27.0297 24.1401L22.9297 20.0101V19.7201L27.0297 15.5801L27.1197 15.6301L32.0297 18.4201C33.4297 19.2101 33.4297 20.5101 32.0297 21.3101L27.1397 24.0901L27.0297 24.1401Z" fill="url(#paint1_linear_2129_11264)"/>
<path d="M27.1497 24.0794L22.9297 19.8594L10.4697 32.3194C10.755 32.5702 11.1191 32.7135 11.4988 32.7245C11.8786 32.7354 12.2503 32.6133 12.5497 32.3794L27.1597 24.0794" fill="url(#paint2_linear_2129_11264)"/>
<path d="M27.15 15.6399L12.54 7.33991C12.2407 7.10593 11.869 6.98386 11.4892 6.99482C11.1094 7.00577 10.7454 7.14906 10.46 7.39991L22.93 19.8599L27.15 15.6399Z" fill="url(#paint3_linear_2129_11264)"/>
<path opacity="0.2" d="M27.0297 23.9902L12.5397 32.2402C12.251 32.456 11.9002 32.5727 11.5397 32.5727C11.1792 32.5727 10.8284 32.456 10.5397 32.2402L10.4697 32.3102L10.5397 32.3802C10.8277 32.5976 11.1788 32.7152 11.5397 32.7152C11.9006 32.7152 12.2516 32.5976 12.5397 32.3802L27.1497 24.0802L27.0297 23.9902Z" fill="black"/>
<path opacity="0.12" d="M10.4704 32.1793C10.1445 31.7882 9.97996 31.2875 10.0104 30.7793V30.9293C9.97996 31.4375 10.1445 31.9382 10.4704 32.3293L10.5404 32.2593L10.4704 32.1793Z" fill="black"/>
<path opacity="0.12" d="M32.0303 21.1594L27.0303 23.9894L27.1203 24.0794L32.0303 21.2994C32.3089 21.1685 32.5481 20.9664 32.7237 20.7136C32.8992 20.4608 33.005 20.1661 33.0303 19.8594C32.9741 20.1381 32.8547 20.4002 32.6814 20.6255C32.508 20.8509 32.2853 21.0335 32.0303 21.1594Z" fill="black"/>
<path opacity="0.25" d="M12.54 7.4798L32.03 18.5598C32.285 18.6857 32.5077 18.8683 32.681 19.0936C32.8544 19.319 32.9738 19.5811 33.03 19.8598C33.0047 19.5531 32.8989 19.2584 32.7233 19.0056C32.5478 18.7527 32.3086 18.5507 32.03 18.4198L12.54 7.3398C11.14 6.5498 10 7.2098 10 8.8098V8.9598C10.03 7.3498 11.15 6.6898 12.54 7.4798Z" fill="white"/>
</g>
<defs>
<linearGradient id="paint0_linear_2129_11264" x1="21.8304" y1="8.57008" x2="5.05041" y2="25.3501" gradientUnits="userSpaceOnUse">
<stop stop-color="#00A0FF"/>
<stop offset="0.01" stop-color="#00A1FF"/>
<stop offset="0.26" stop-color="#00BEFF"/>
<stop offset="0.51" stop-color="#00D2FF"/>
<stop offset="0.76" stop-color="#00DFFF"/>
<stop offset="1" stop-color="#00E3FF"/>
</linearGradient>
<linearGradient id="paint1_linear_2129_11264" x1="33.8597" y1="19.8601" x2="9.66968" y2="19.8601" gradientUnits="userSpaceOnUse">
<stop stop-color="#FFE000"/>
<stop offset="0.41" stop-color="#FFBD00"/>
<stop offset="0.78" stop-color="#FFA500"/>
<stop offset="1" stop-color="#FF9C00"/>
</linearGradient>
<linearGradient id="paint2_linear_2129_11264" x1="24.8597" y1="22.1594" x2="2.0997" y2="44.9094" gradientUnits="userSpaceOnUse">
<stop stop-color="#FF3A44"/>
<stop offset="1" stop-color="#C31162"/>
</linearGradient>
<linearGradient id="paint3_linear_2129_11264" x1="7.32998" y1="0.0399114" x2="17.49" y2="10.1999" gradientUnits="userSpaceOnUse">
<stop stop-color="#32A071"/>
<stop offset="0.07" stop-color="#2DA771"/>
<stop offset="0.48" stop-color="#15CF74"/>
<stop offset="0.8" stop-color="#06E775"/>
<stop offset="1" stop-color="#00F076"/>
</linearGradient>
<clipPath id="clip0_2129_11264">
<rect width="135" height="40" fill="white"/>
</clipPath>
</defs>
</svg>

<svg width="135" height="40" fill="none" xmlns="http://www.w3.org/2000/svg"><g clip-path="url(#clip0_2129_11264)"><path d="M130 39.5H5C2.483 39.5.5 37.43.5 35V5C.5 2.483 2.57.5 5 .5h125c2.517 0 4.5 2.07 4.5 4.5v30c0 2.524-1.976 4.5-4.5 4.5z" fill="#000" stroke="#A6A6A6"/><path d="M47.4 10.2c0 .8-.2 1.5-.7 2-.6.6-1.3.9-2.2.9-.9 0-1.6-.3-2.2-.9-.6-.6-.9-1.3-.9-2.2 0-.9.3-1.6.9-2.2.6-.6 1.3-.9 2.2-.9.4 0 .8.1 1.2.3.4.2.7.4.9.7l-.5.5c-.4-.5-.9-.7-1.6-.7-.6 0-1.2.2-1.6.7-.5.4-.7 1-.7 1.7s.2 1.3.7 1.7c.5.4 1 .7 1.6.7.7 0 1.2-.2 1.7-.7.3-.3.5-.7.5-1.2h-2.2v-.8h2.9v.4zM52 7.7h-2.7v1.9h2.5v.7h-2.5v1.9H52v.8h-3.5V7H52v.7zm3.3 5.3h-.8V7.7h-1.7V7H57v.7h-1.7V13zm4.6 0V7h.8v6h-.8zm4.2 0h-.8V7.7h-1.7V7h4.1v.7H64V13h.1zm9.5-.8c-.6.6-1.3.9-2.2.9-.9 0-1.6-.3-2.2-.9-.6-.6-.9-1.3-.9-2.2 0-.9.3-1.6.9-2.2.6-.6 1.3-.9 2.2-.9.9 0 1.6.3 2.2.9.6.6.9 1.3.9 2.2 0 .9-.3 1.6-.9 2.2zm-3.8-.5c.4.4 1 .7 1.6.7.6 0 1.2-.2 1.6-.7.4-.4.7-1 .7-1.7s-.2-1.3-.7-1.7c-.4-.4-1-.7-1.6-.7-.6 0-1.2.2-1.6.7-.4.4-.7 1-.7 1.7s.2 1.3.7 1.7zm5.8 1.3V7h.9l2.9 4.7V7h.8v6h-.8l-3.1-4.9V13h-.7z" fill="#fff"/><path d="M47.4 10.2c0 .8-.2 1.5-.7 2-.6.6-1.3.9-2.2.9-.9 0-1.6-.3-2.2-.9-.6-.6-.9-1.3-.9-2.2 0-.9.3-1.6.9-2.2.6-.6 1.3-.9 2.2-.9.4 0 .8.1 1.2.3.4.2.7.4.9.7l-.5.5c-.4-.5-.9-.7-1.6-.7-.6 0-1.2.2-1.6.7-.5.4-.7 1-.7 1.7s.2 1.3.7 1.7c.5.4 1 .7 1.6.7.7 0 1.2-.2 1.7-.7.3-.3.5-.7.5-1.2h-2.2v-.8h2.9v.4zM52 7.7h-2.7v1.9h2.5v.7h-2.5v1.9H52v.8h-3.5V7H52v.7zm3.3 5.3h-.8V7.7h-1.7V7H57v.7h-1.7V13zm4.6 0V7h.8v6h-.8zm4.2 0h-.8V7.7h-1.7V7h4.1v.7H64V13h.1zm9.5-.8c-.6.6-1.3.9-2.2.9-.9 0-1.6-.3-2.2-.9-.6-.6-.9-1.3-.9-2.2 0-.9.3-1.6.9-2.2.6-.6 1.3-.9 2.2-.9.9 0 1.6.3 2.2.9.6.6.9 1.3.9 2.2 0 .9-.3 1.6-.9 2.2zm-3.8-.5c.4.4 1 .7 1.6.7.6 0 1.2-.2 1.6-.7.4-.4.7-1 .7-1.7s-.2-1.3-.7-1.7c-.4-.4-1-.7-1.6-.7-.6 0-1.2.2-1.6.7-.4.4-.7 1-.7 1.7s.2 1.3.7 1.7zm5.8 1.3V7h.9l2.9 4.7V7h.8v6h-.8l-3.1-4.9V13h-.7z" stroke="#fff" stroke-width=".2" stroke-miterlimit="10"/><path d="M68.1 21.8c-2.4 0-4.3 1.8-4.3 4.3 0 2.4 1.9 4.3 4.3 4.3s4.3-1.8 4.3-4.3c0-2.6-1.9-4.3-4.3-4.3zm0 6.8c-1.3 0-2.4-1.1-2.4-2.6s1.1-2.6 2.4-2.6c1.3 0 2.4 1 2.4 2.6 0 1.5-1.1 2.6-2.4 2.6zm-9.3-6.8c-2.4 0-4.3 1.8-4.3 4.3 0 2.4 1.9 4.3 4.3 4.3s4.3-1.8 4.3-4.3c0-2.6-1.9-4.3-4.3-4.3zm0 6.8c-1.3 0-2.4-1.1-2.4-2.6s1.1-2.6 2.4-2.6c1.3 0 2.4 1 2.4 2.6 0 1.5-1.1 2.6-2.4 2.6zm-11.1-5.5v1.8H52c-.1 1-.5 1.8-1 2.3-.6.6-1.6 1.3-3.3 1.3-2.7 0-4.7-2.1-4.7-4.8 0-2.7 2.1-4.8 4.7-4.8 1.4 0 2.5.6 3.3 1.3l1.3-1.3c-1.1-1-2.5-1.8-4.5-1.8-3.6 0-6.7 3-6.7 6.6 0 3.6 3.1 6.6 6.7 6.6 2 0 3.4-.6 4.6-1.9 1.2-1.2 1.6-2.9 1.6-4.2 0-.4 0-.8-.1-1.1h-6.2zm45.4 1.4c-.4-1-1.4-2.7-3.6-2.7s-4 1.7-4 4.3c0 2.4 1.8 4.3 4.2 4.3 1.9 0 3.1-1.2 3.5-1.9l-1.4-1c-.5.7-1.1 1.2-2.1 1.2s-1.6-.4-2.1-1.3l5.7-2.4-.2-.5zm-5.8 1.4c0-1.6 1.3-2.5 2.2-2.5.7 0 1.4.4 1.6.9l-3.8 1.6zM82.6 30h1.9V17.5h-1.9V30zm-3-7.3c-.5-.5-1.3-1-2.3-1-2.1 0-4.1 1.9-4.1 4.3s1.9 4.2 4.1 4.2c1 0 1.8-.5 2.2-1h.1v.6c0 1.6-.9 2.5-2.3 2.5-1.1 0-1.9-.8-2.1-1.5l-1.6.7c.5 1.1 1.7 2.5 3.8 2.5 2.2 0 4-1.3 4-4.4V22h-1.8v.7zm-2.2 5.9c-1.3 0-2.4-1.1-2.4-2.6s1.1-2.6 2.4-2.6c1.3 0 2.3 1.1 2.3 2.6s-1 2.6-2.3 2.6zm24.4-11.1h-4.5V30h1.9v-4.7h2.6c2.1 0 4.1-1.5 4.1-3.9s-2-3.9-4.1-3.9zm.1 6h-2.7v-4.3h2.7c1.4 0 2.2 1.2 2.2 2.1-.1 1.1-.9 2.2-2.2 2.2zm11.5-1.8c-1.4 0-2.8.6-3.3 1.9l1.7.7c.4-.7 1-.9 1.7-.9 1 0 1.9.6 2 1.6v.1c-.3-.2-1.1-.5-1.9-.5-1.8 0-3.6 1-3.6 2.8 0 1.7 1.5 2.8 3.1 2.8 1.3 0 1.9-.6 2.4-1.2h.1v1h1.8v-4.8c-.2-2.2-1.9-3.5-4-3.5zm-.2 6.9c-.6 0-1.5-.3-1.5-1.1 0-1 1.1-1.3 2-1.3.8 0 1.2.2 1.7.4-.2 1.2-1.2 2-2.2 2zm10.5-6.6l-2.1 5.4h-.1l-2.2-5.4h-2l3.3 7.6-1.9 4.2h1.9l5.1-11.8h-2zm-16.8 8h1.9V17.5h-1.9V30z" fill="#fff"/><path d="M10.47 7.4a2 2 0 00-.46 1.4v22.12a2 2 0 00.46 1.4l.07.07 12.39-12.38v-.29L10.54 7.33l-.07.07z" fill="url(#paint0_linear_2129_11264)"/><path d="M27.03 24.14l-4.1-4.13v-.29l4.1-4.14.09.05 4.91 2.79c1.4.79 1.4 2.09 0 2.89l-4.89 2.78-.11.05z" fill="url(#paint1_linear_2129_11264)"/><path d="M27.15 24.08l-4.22-4.22-12.46 12.46a1.63 1.63 0 002.08.06l14.61-8.3" fill="url(#paint2_linear_2129_11264)"/><path d="M27.15 15.64l-14.61-8.3a1.63 1.63 0 00-2.08.06l12.47 12.46 4.22-4.22z" fill="url(#paint3_linear_2129_11264)"/><path opacity=".2" d="M27.03 23.99l-14.49 8.25a1.67 1.67 0 01-2 0l-.07.07.07.07a1.66 1.66 0 002 0l14.61-8.3-.12-.09z" fill="#000"/><path opacity=".12" d="M10.47 32.18a2 2 0 01-.46-1.4v.15a2 2 0 00.46 1.4l.07-.07-.07-.08zm21.56-11.02l-5 2.83.09.09 4.91-2.78a1.75 1.75 0 001-1.44 1.86 1.86 0 01-1 1.3z" fill="#000"/><path opacity=".25" d="M12.54 7.48l19.49 11.08a1.86 1.86 0 011 1.3 1.75 1.75 0 00-1-1.44L12.54 7.34C11.14 6.55 10 7.21 10 8.81v.15c.03-1.61 1.15-2.27 2.54-1.48z" fill="#fff"/></g><defs><linearGradient id="paint0_linear_2129_11264" x1="21.83" y1="8.57" x2="5.05" y2="25.35" gradientUnits="userSpaceOnUse"><stop stop-color="#00A0FF"/><stop offset=".01" stop-color="#00A1FF"/><stop offset=".26" stop-color="#00BEFF"/><stop offset=".51" stop-color="#00D2FF"/><stop offset=".76" stop-color="#00DFFF"/><stop offset="1" stop-color="#00E3FF"/></linearGradient><linearGradient id="paint1_linear_2129_11264" x1="33.86" y1="19.86" x2="9.67" y2="19.86" gradientUnits="userSpaceOnUse"><stop stop-color="#FFE000"/><stop offset=".41" stop-color="#FFBD00"/><stop offset=".78" stop-color="orange"/><stop offset="1" stop-color="#FF9C00"/></linearGradient><linearGradient id="paint2_linear_2129_11264" x1="24.86" y1="22.159" x2="2.1" y2="44.909" gradientUnits="userSpaceOnUse"><stop stop-color="#FF3A44"/><stop offset="1" stop-color="#C31162"/></linearGradient><linearGradient id="paint3_linear_2129_11264" x1="7.33" y1=".04" x2="17.49" y2="10.2" gradientUnits="userSpaceOnUse"><stop stop-color="#32A071"/><stop offset=".07" stop-color="#2DA771"/><stop offset=".48" stop-color="#15CF74"/><stop offset=".8" stop-color="#06E775"/><stop offset="1" stop-color="#00F076"/></linearGradient><clipPath id="clip0_2129_11264"><path fill="#fff" d="M0 0h135v40H0z"/></clipPath></defs></svg>
